assets/svg/discord-mono-inverted.svg

<svg fill="none" height="24" viewBox="0 0 24 24" width="24" xmlns="http://www.w3.org/2000/svg"><g stroke="#fff"><path d="m9.875 13.5c0 .4832-.39175.875-.875.875s-.875-.3918-.875-.875.39175-.875.875-.875.875.3918.875.875z" fill="#fff" stroke-width=".125"/><path d="m15.875 13.5c0 .4832-.3918.875-.875.875s-.875-.3918-.875-.875.3918-.875.875-.875.875.3918.875.875z" fill="#fff" stroke-width=".125"/><g stroke-linecap="round" stroke-linejoin="round" stroke-width="1.5"><path d="m6.97501 7.49999c1.62586-.50956 3.32119-.7626 5.02499-.75 1.7038-.0126 3.3991.24044 5.025.75"/><path d="m17.025 16.5c-1.6259.5096-3.3212.7626-5.025.75-1.7038.0126-3.39913-.2404-5.02499-.75"/><path d="m14.5312 17.0719 1.1344 2.25c.073.1534.1972.2766.3511.3485.154.0718.3282.0878.4927.0452 2.2968-.5625 4.2843-1.5375 5.7281-2.7937.1088-.0961.1879-.2213.2278-.3608.0398-.1396.0389-.2877-.0028-.4267l-3.1781-10.61253c-.031-.1086-.0869-.20844-.1635-.29148-.0765-.08304-.1714-.14696-.2772-.18664-.8979-.36837-1.8264-.65699-2.775-.8625-.1822-.03992-.3728-.01133-.5354.08032-.1625.09164-.2856.23993-.3458.41655l-.7406 2.24063"/><path d="m9.46876 17.0719-1.13438 2.25c-.07299.1534-.19713.2766-.3511.3485-.15398.0718-.32817.0878-.49265.0452-2.29687-.5625-4.28437-1.5375-5.72812-2.7937-.10885-.0961-.18789-.2213-.22777-.3608-.03988-.1396-.03892-.2877.00277-.4267l3.17812-10.61253c.03093-.1086.08691-.20844.16344-.29148.07652-.08304.17146-.14696.27719-.18664.8979-.36837 1.82648-.65699 2.775-.8625.18228-.03992.37287-.01133.53541.08032.16255.09164.28565.23993.34584.41655l.74062 2.24063"/></g></g></svg>

<svg width="24" height="24" viewBox="0 0 24 24" fill="none" xmlns="http://www.w3.org/2000/svg">
<path d="M9.875 13.5C9.875 13.9832 9.48325 14.375 9 14.375C8.51675 14.375 8.125 13.9832 8.125 13.5C8.125 13.0168 8.51675 12.625 9 12.625C9.48325 12.625 9.875 13.0168 9.875 13.5Z" fill="white" stroke="white" stroke-width="0.125"/>
<path d="M15.875 13.5C15.875 13.9832 15.4832 14.375 15 14.375C14.5168 14.375 14.125 13.9832 14.125 13.5C14.125 13.0168 14.5168 12.625 15 12.625C15.4832 12.625 15.875 13.0168 15.875 13.5Z" fill="white" stroke="white" stroke-width="0.125"/>
<path d="M6.97501 7.49999C8.60087 6.99043 10.2962 6.73739 12 6.74999C13.7038 6.73739 15.3991 6.99043 17.025 7.49999" stroke="white" stroke-width="1.5" stroke-linecap="round" stroke-linejoin="round"/>
<path d="M17.025 16.5C15.3991 17.0096 13.7038 17.2626 12 17.25C10.2962 17.2626 8.60087 17.0096 6.97501 16.5" stroke="white" stroke-width="1.5" stroke-linecap="round" stroke-linejoin="round"/>
<path d="M14.5312 17.0719L15.6656 19.3219C15.7386 19.4753 15.8628 19.5985 16.0167 19.6704C16.1707 19.7422 16.3449 19.7582 16.5094 19.7156C18.8062 19.1531 20.7937 18.1781 22.2375 16.9219C22.3463 16.8258 22.4254 16.7006 22.4653 16.5611C22.5051 16.4215 22.5042 16.2734 22.4625 16.1344L19.2844 5.52187C19.2534 5.41327 19.1975 5.31343 19.1209 5.23039C19.0444 5.14735 18.9495 5.08343 18.8437 5.04375C17.9458 4.67538 17.0173 4.38676 16.0687 4.18125C15.8865 4.14133 15.6959 4.16992 15.5333 4.26157C15.3708 4.35321 15.2477 4.5015 15.1875 4.67812L14.4469 6.91875" stroke="white" stroke-width="1.5" stroke-linecap="round" stroke-linejoin="round"/>
<path d="M9.46876 17.0719L8.33438 19.3219C8.26139 19.4753 8.13725 19.5985 7.98328 19.6704C7.8293 19.7422 7.65511 19.7582 7.49063 19.7156C5.19376 19.1531 3.20626 18.1781 1.76251 16.9219C1.65366 16.8258 1.57462 16.7006 1.53474 16.5611C1.49486 16.4215 1.49582 16.2734 1.53751 16.1344L4.71563 5.52187C4.74656 5.41327 4.80254 5.31343 4.87907 5.23039C4.95559 5.14735 5.05053 5.08343 5.15626 5.04375C6.05416 4.67538 6.98274 4.38676 7.93126 4.18125C8.11354 4.14133 8.30413 4.16992 8.46667 4.26157C8.62922 4.35321 8.75232 4.5015 8.81251 4.67812L9.55313 6.91875" stroke="white" stroke-width="1.5" stroke-linecap="round" stroke-linejoin="round"/>
</svg>
